X:1
T:There Is Room in His Heart for You
T:Hampton Haygood Sewell
T:There Is Room in His Heart for You
T:Public Domain
T:Public Domain
C:Hampton Haygood Sewell
Z:Public Domain
%%score ( 1 2 ) ( 3 4 )
L:1/8
M:4/4
K:Ab
V:1 treble 
V:2 treble 
V:3 bass 
V:4 bass 
V:1
 [A,C]>[B,D] | [CE]2 [Ec]>[=D=B] [Ec]2 [F_d]>[Ec] | [DB]2 [DF]>[D=E] [DF]2 [DB]>[DA] | %3
w: 1.~There’s a|king from a- bove who has|won- der- ful love, And is|
w: 2.~If on|Him you de- pend you will|have a great friend, Who all|
w: 3.~He has|suf- fered and died, your trans-|gress- ions to hide, And is|
 [DG] [DG]2 [DF] [DE]2 [Fd]2 | [Ec]6 [A,C]>[B,D] | [CE]2 [Ec]>[=D=B] [Ec]2 [F_d]>[Ec] | %6
w: a- ble to keep men|true; So tho’|great is your sin, if His|
w: tri- als will keep you|thro’; So tho’|far you have strayed, if you|
w: rea- dy still more to|do; For He|wants you to love Him on|
 [DB]2 [DF]>[D=E] [DF]2 [Fd]>[Fd] | [Ec] [Ec]2 [CA] [Ec]2 [DB]2 | [CA]6 ||"^Refrain" [CA]>[CA] | %10
w: grace you would win, There is|room in His heart for|you.||
w: ask for His aid, There is|room in His heart for|you.|There is|
w: earth and a- bove; There is|room in His heart for|you.||
 [DG] [DG]2 [EB] [Gd]2 [^Fd]2 | (G2 F2 E2) [Ec]>[DB] | [CA] [CE]2 [CA] [Ec]2 [Fc]2 | %13
w: |||
w: room in His heart for|you, * * There is|in His heart for you;|
w: |||
 (E2 F2 E2) [Ec]>[Ed] | [Ae]>[Be] [Ae]>[Ae] [Ae]2 [_Gc]>[Gc] | %15
w: ||
w: O- * * cean wide|deep as sea Is His grace and|
w: ||
 [FB]>[FB] [Fc]>[Fc] [Fd]2 [Fd]>[Fd] | [Ec] [Ec]2 [CA] [Ec]2 [DB]2 | [CA]6 |] %18
w: |||
w: love for thee, There is room in|His heart for you. *||
w: |||
V:2
 x2 | x8 | x8 | x8 | x8 | x8 | x8 | x8 | x6 || x2 | x8 | d6 x2 | x8 | c6 x2 | x8 | x8 | x8 | x6 |] %18
w: ||||||||||||||||||
w: |||||||||||room||and|||||
V:3
 [A,,E,]>[A,,E,] | [A,,A,]2 [A,,A,]>[A,,A,] [A,,A,]2 [A,,A,]>[A,,A,] | %2
w: ~ ~|~ ~ ~ ~ ~ ~|
 [D,F,]2 [D,A,]>[D,G,] [D,A,]2 [D,F,]>[D,F,] | [E,B,] [E,B,]2 [E,A,] [E,G,]2 [E,G,]2 | %4
w: ~ ~ ~ ~ ~ ~|~ ~ ~ ~ ~|
 [A,,A,]6 [A,,E,]>[A,,E,] | [A,,A,]2 [A,,A,]>[A,,A,] [A,,A,]2 [A,,A,]>[A,,A,] | %6
w: ~ ~ ~|~ ~ ~ ~ ~ ~|
 [D,F,]2 [D,A,]>[D,G,] [D,A,]2 [D,A,]>[D,A,] | [E,A,] [E,A,]2 [E,A,] [E,G,]2 [E,G,]2 | [A,,A,]6 || %9
w: ~ ~ ~ ~ ~ ~|~ ~ ~ ~ ~|~|
 [A,,A,]>[A,,A,] | [E,B,] [E,B,]2 [E,G,] [E,B,]2 [E,=A,]2 | B,2 A,2 G,2 [E,G,]>[E,G,] | %12
w: ~ ~|~ ~ ~ ~ ~|~ for you, ~ ~|
 [A,,A,] [A,,A,]2 [A,,E,] [A,,A,]2 [A,,A,]2 | A,2 A,2 A,2 A,>[A,B,] | %14
w: ~ ~ ~ ~ ~|for you; * * *|
 [A,C]>[A,D] [A,C]>[A,C] [C,A,]2 [A,,A,]>[A,,A,] | %15
w: |
 [D,A,]>[D,A,] [C,=A,]>[C,A,] [B,,B,]2 [D,_A,]>[D,A,] | [E,A,] [E,A,]2 [E,A,] [E,G,]2 [E,G,]2 | %17
w: ||
 [A,,A,]6 |] %18
w: |
V:4
 x2 | x8 | x8 | x8 | x8 | x8 | x8 | x8 | x6 || x2 | x8 | E,6 x2 | x8 | A,,6 A,3/2 x/ | x8 | x8 | %16
w: |||||||||||~|||||
 x8 | x6 |] %18
w: ||

